X:108
T:B108-  The delights of the bottle
Q:1/4=120
L:1/4
M:3/4
K:D
D3/4E/4|F3/2E/2D|AAA3/4A/4|B3/2c/2d|c2c3/4d/4|\
e3/2 d/4c/4 B3/4A/4|^GGd|cB3/2A/2|A2d3/4c/4|\
BA3/2G/2|F3/2E/2D|GAB|G2e/2d/2|\
c3/2B/2A|d3/2=c/2B|cA3/2G/2|G2 B/2c/4d/4|\
ed3/2e/2|c3/2B/2c|d3/2A/2=c|B2F|\
GAB|A3/2A/2d|B3/2e/2c|.d2|]
